icons/svg/shields/h_rungs_shield.svg

<?xml version="1.0" encoding="UTF-8" standalone="no"?>
<svg
   xmlns:dc="http://purl.org/dc/elements/1.1/"
   xmlns:cc="http://creativecommons.org/ns#"
   xmlns:rdf="http://www.w3.org/1999/02/22-rdf-syntax-ns#"
   xmlns:svg="http://www.w3.org/2000/svg"
   xmlns="http://www.w3.org/2000/svg"
   xmlns:sodipodi="http://sodipodi.sourceforge.net/DTD/sodipodi-0.dtd"
   xmlns:inkscape="http://www.inkscape.org/namespaces/inkscape"
   width="16"
   height="16"
   viewBox="0 0 16 16"
   version="1.1"
   id="svg6"
   sodipodi:docname="h_rungs_shield.svg"
   inkscape:version="0.92.5 (2060ec1f9f, 2020-04-08)"
   style="fill:none">
  <metadata
     id="metadata12">
    <rdf:RDF>
      <cc:Work
         rdf:about="">
        <dc:format>image/svg+xml</dc:format>
        <dc:type
           rdf:resource="http://purl.org/dc/dcmitype/StillImage" />
        <dc:title></dc:title>
      </cc:Work>
    </rdf:RDF>
  </metadata>
  <defs
     id="defs10" />
  <sodipodi:namedview
     pagecolor="#ffffff"
     bordercolor="#666666"
     borderopacity="1"
     objecttolerance="10"
     gridtolerance="10"
     guidetolerance="10"
     inkscape:pageopacity="0"
     inkscape:pageshadow="2"
     inkscape:window-width="1920"
     inkscape:window-height="1014"
     id="namedview8"
     showgrid="true"
     inkscape:zoom="27.812867"
     inkscape:cx="1.4317309"
     inkscape:cy="6.8037781"
     inkscape:window-x="1920"
     inkscape:window-y="0"
     inkscape:window-maximized="1"
     inkscape:current-layer="svg6">
    <inkscape:grid
       type="xygrid"
       id="grid822"
       spacingx="2"
       spacingy="2" />
  </sodipodi:namedview>
  <path
     sodipodi:type="inkscape:offset"
     inkscape:radius="0.69618386"
     inkscape:original="M 2.65625 4.6582031 A 0.66673335 0.66673335 0 0 0 2 5.3339844 L 2 10 A 0.66673335 0.66673335 0 0 0 2.6660156 10.666016 L 13.333984 10.666016 A 0.66673335 0.66673335 0 0 0 14 10 L 14 5.3339844 A 0.666992 0.666992 0 0 0 12.666016 5.3339844 L 12.666016 9.3339844 L 3.3339844 9.3339844 L 3.3339844 5.3339844 A 0.66673335 0.66673335 0 0 0 2.65625 4.6582031 z "
     style="color:#000000;font-style:normal;font-variant:normal;font-weight:normal;font-stretch:normal;font-size:medium;line-height:normal;font-family:sans-serif;font-variant-ligatures:normal;font-variant-position:normal;font-variant-caps:normal;font-variant-numeric:normal;font-variant-alternates:normal;font-feature-settings:normal;text-indent:0;text-align:start;text-decoration:none;text-decoration-line:none;text-decoration-style:solid;text-decoration-color:#000000;letter-spacing:normal;word-spacing:normal;text-transform:none;writing-mode:lr-tb;direction:ltr;text-orientation:mixed;dominant-baseline:auto;baseline-shift:baseline;text-anchor:start;white-space:normal;shape-padding:0;clip-rule:nonzero;display:inline;overflow:visible;visibility:visible;opacity:1;isolation:auto;mix-blend-mode:normal;color-interpolation:sRGB;color-interpolation-filters:linearRGB;solid-color:#000000;solid-opacity:1;vector-effect:none;fill:#f1eae4;fill-opacity:1;fill-rule:evenodd;stroke:none;stroke-width:1;stroke-linecap:butt;stroke-linejoin:miter;stroke-miterlimit:4;stroke-dasharray:none;stroke-dashoffset:0;stroke-opacity:1;color-rendering:auto;image-rendering:auto;shape-rendering:auto;text-rendering:auto;enable-background:accumulate"
     id="path824-3"
     d="M 2.6445312,3.9628906 C 1.9318766,3.9740306 1.2949281,4.6310751 1.3046875,5.34375 V 10 c 7.663e-4,0.712644 0.6486841,1.360561 1.3613281,1.361328 H 13.333984 C 14.046629,11.360562 14.694546,10.712644 14.695312,10 V 5.3339844 c 0,-0.7137572 -0.64757,-1.3632813 -1.361328,-1.3632813 -0.713757,0 -1.363281,0.6495241 -1.363281,1.3632813 V 8.6386719 H 4.0292969 V 5.34375 C 4.0392681,4.6164296 3.3718199,3.9508204 2.6445312,3.9628906 Z"
     transform="matrix(0.8,0,0,0.8,1.5999889,1.5324057)" />
</svg>

<svg width="16" height="16" fill="none" version="1.1" viewBox="0 0 16 16" xmlns="http://www.w3.org/2000/svg">
 <path transform="matrix(.8 0 0 .8 1.6 1.5324)" d="m2.6445 3.9629c-0.71265 0.01114-1.3496 0.66818-1.3398 1.3809v4.6562c7.663e-4 0.71264 0.64868 1.3606 1.3613 1.3613h10.668c0.71264-7.66e-4 1.3606-0.64868 1.3613-1.3613v-4.666c0-0.71376-0.64757-1.3633-1.3613-1.3633-0.71376 0-1.3633 0.64952-1.3633 1.3633v3.3047h-7.9414v-3.2949c0.0099712-0.72732-0.65748-1.3929-1.3848-1.3809z" color="#000000" color-rendering="auto" dominant-baseline="auto" fill="#f1eae4" fill-rule="evenodd" image-rendering="auto" shape-rendering="auto" solid-color="#000000" style="font-feature-settings:normal;font-variant-alternates:normal;font-variant-caps:normal;font-variant-ligatures:normal;font-variant-numeric:normal;font-variant-position:normal;isolation:auto;mix-blend-mode:normal;shape-padding:0;text-decoration-color:#000000;text-decoration-line:none;text-decoration-style:solid;text-indent:0;text-orientation:mixed;text-transform:none;white-space:normal"/>
</svg>
